X:2450
T:Camel Dance
S:Gill \& Grace
R:Other
O:Israel
M:4/4
K:Bb
^FGEF GAFG|A8|ABcd cBAG|^F8|\
Addc cBBA|G2A2 ^F4|^FGEF GAFE|D8||\
d8|cdcB c2A2|B4 BAAG|A2d2 A2D2|\
d8|cdcB c2A2|BAAG GFFE|D8||


